svg/emoji_u1f968.svg

<?xml version="1.0" encoding="UTF-8" standalone="no"?>
<!DOCTYPE svg PUBLIC "-//W3C//DTD SVG 1.1//EN" "http://www.w3.org/Graphics/SVG/1.1/DTD/svg11.dtd">
<svg width="100%" height="100%" viewBox="0 0 128 128" version="1.1" xmlns="http://www.w3.org/2000/svg" xmlns:xlink="http://www.w3.org/1999/xlink" xml:space="preserve" xmlns:serif="http://www.serif.com/" style="fill-rule:evenodd;clip-rule:evenodd;stroke-linejoin:round;stroke-miterlimit:2;">
    <path id="path5630" d="M89.375,14.76C87.222,14.771 85.03,14.933 82.801,15.211C75.264,16.149 68.938,19.245 63.982,24.4C60.759,21.636 53.334,16.38 42,16.193C37.878,16.125 33.244,16.734 28.119,18.381C4.389,26.011 -3.321,59.5 11.029,81.25C16.682,89.82 20.821,93.743 22.861,95.381C21.148,102.154 25.84,107.07 25.84,107.07L25.904,106.984C26.28,107.568 26.73,108.13 27.322,108.65L27.34,108.75C27.34,108.75 31.85,113.669 37.73,113.529C43.61,113.389 46.07,109.84 46.07,109.84C46.07,109.84 54.82,114.601 67.67,114.211C83.559,113.734 90.765,108.355 91.146,108.063C91.851,108.37 92.584,108.603 93.338,108.793C95.149,109.392 97.825,110.061 100.58,109.75C107.64,108.94 111.129,103.431 111.789,98.711C112.479,93.821 111.4,91.551 111.4,91.551C111.4,91.551 120.29,81.539 123.16,66.369C125.334,54.878 123.508,44.023 121.543,38.182C120.439,33.906 118.38,29.827 114.971,26.039C107.293,17.5 98.703,14.712 89.375,14.76ZM37.135,38.658C42.571,38.405 47.863,40.749 49.934,42.625C49.92,42.687 49.904,42.748 49.891,42.811C47.681,53.381 50.69,59.221 51.85,61.551C51.978,61.808 52.116,62.05 52.256,62.287C49.583,64.996 46.636,68.065 43.24,71.461C41.502,73.199 39.929,74.728 38.295,76.324C33.032,71.03 28.239,64.378 27.619,55.99C27.021,47.866 30.228,42.539 34.031,39.113C35.055,38.854 36.097,38.707 37.135,38.658ZM92.055,38.949C96.204,39.04 99.183,41.4 100.668,42.893C104.468,49.859 101.206,60.019 99.91,63.301C98,68.121 94.66,73.24 94.66,73.24C94.66,73.24 94.677,73.248 94.678,73.248L92.078,76.572C88.443,73.759 85.761,71.68 85.156,71.211L80.93,67.73C80.93,67.73 82.71,63.77 82.43,59.67C82.15,55.57 79.01,52.289 79.01,52.289C79.01,52.289 79.321,44.101 85.221,40.811C87.741,39.403 90.033,38.905 92.055,38.949ZM67.279,82.961C67.279,82.961 68.439,84.67 69.529,86.17C69.6,86.267 69.755,86.461 69.84,86.574L69.82,86.6C69.82,86.6 71.351,88.63 73.389,91.18C72.425,91.491 71.05,91.802 69.949,91.85C68.099,91.93 65.52,91.75 65.52,91.75C65.52,91.75 65.512,91.762 65.512,91.762C64.45,91.608 62.676,91.268 60.441,90.641L67.279,82.961Z" style="fill:rgb(247,140,4);fill-rule:nonzero;"/>
    <path id="path5650" d="M93.74,90.43C93.17,91.1 95.03,95.3 95.99,95.21C96.95,95.12 99.38,92.15 99.24,91.05C99.12,90.15 94.31,89.76 93.74,90.43Z" style="fill:rgb(255,243,224);fill-rule:nonzero;"/>
    <path id="path5652" d="M65.09,63.6C64.77,64.25 66.85,69.46 67.61,69.41C68.37,69.36 71.61,64.12 71.42,63.46C71.23,62.79 65.47,62.84 65.09,63.6Z" style="fill:rgb(255,243,224);fill-rule:nonzero;"/>
    <path id="path5654" d="M53.47,79.22C52.51,78.43 50.43,78.16 49.33,79.84C48.33,81.36 48.62,82.94 50.04,83.94C50.96,84.58 53.04,84.65 53.9,83.23C54.65,81.96 54.85,80.36 53.47,79.22Z" style="fill:rgb(255,243,224);fill-rule:nonzero;"/>
    <path id="path5656" d="M27.46,75.96C26.6,75.23 24.73,74.99 23.74,76.53C22.84,77.93 23.1,79.37 24.38,80.29C25.21,80.88 27.07,80.95 27.84,79.63C28.52,78.48 28.7,77.01 27.46,75.96Z" style="fill:rgb(255,243,224);fill-rule:nonzero;"/>
    <path id="path5658" d="M17.13,61.78C17.98,61.04 18.47,59.09 17.1,57.88C15.85,56.78 14.42,56.95 13.32,58.08C12.61,58.81 12.3,60.97 13.48,61.92C14.51,62.78 15.9,62.85 17.13,61.78Z" style="fill:rgb(255,243,224);fill-rule:nonzero;"/>
    <path id="path5660" d="M10.81,73.33C10.62,74.22 14.18,77.67 14.81,77.57C15.43,77.47 17,71.24 16.48,70.95C15.95,70.67 10.95,72.67 10.81,73.33Z" style="fill:rgb(255,243,224);fill-rule:nonzero;"/>
    <path id="path5662" d="M21.44,31.47C20.77,31.38 17.96,36.22 18.33,36.8C18.7,37.39 23.32,37.37 23.69,36.81C24.07,36.25 22.36,31.59 21.44,31.47Z" style="fill:rgb(255,243,224);fill-rule:nonzero;"/>
    <path id="path5664" d="M24.95,23.24C24.69,24.25 29.23,27.76 29.79,27.68C30.57,27.58 33.09,22.68 32.58,21.58C32.28,20.95 25.15,22.49 24.95,23.24Z" style="fill:rgb(255,243,224);fill-rule:nonzero;"/>
    <path id="path5666" d="M43.48,26.65C43.58,28.42 44.77,29.11 46.02,29.07C47.27,29.03 48.52,28.02 48.4,26.29C48.28,24.56 46.71,24.07 45.7,24.15C44.69,24.24 43.4,25.2 43.48,26.65Z" style="fill:rgb(255,243,224);fill-rule:nonzero;"/>
    <path id="path5668" d="M63.64,43.46C63.64,44.24 67.16,47.96 68.4,47.58C69.24,47.33 69.54,41.31 68.64,40.9C67.73,40.49 63.64,42.72 63.64,43.46Z" style="fill:rgb(255,243,224);fill-rule:nonzero;"/>
    <path id="path5670" d="M68.82,27.38C68.7,28.03 71.74,31.68 72.61,31.44C73.48,31.2 74.5,25.95 74.31,25.56C74,24.93 69,26.43 68.82,27.38Z" style="fill:rgb(255,243,224);fill-rule:nonzero;"/>
    <path id="path5672" d="M93.81,29.82C94.47,29.13 93.17,24.53 92.27,24.49C91.37,24.45 88.11,28.29 88.94,29.26C89.77,30.23 93,30.66 93.81,29.82Z" style="fill:rgb(255,243,224);fill-rule:nonzero;"/>
    <path id="path5674" d="M106.49,40.15C106.92,41.33 111.45,41.84 112.31,41.18C113.17,40.51 110.79,36.04 109.88,35.85C108.97,35.65 106.11,39.1 106.49,40.15Z" style="fill:rgb(255,243,224);fill-rule:nonzero;"/>
    <path id="path5676" d="M101.26,23.63C100.72,24.94 101.08,26.3 102.5,27.01C103.93,27.72 105.27,26.89 105.74,25.91C106.41,24.53 105.79,22.91 104.64,22.39C103.37,21.81 101.83,22.25 101.26,23.63Z" style="fill:rgb(255,243,224);fill-rule:nonzero;"/>
    <path id="path5678" d="M104.9,61.17C104.5,62.26 106.09,64.69 107.04,64.65C107.99,64.61 109.85,60.27 109.28,59.55C108.71,58.84 105.24,60.26 104.9,61.17Z" style="fill:rgb(255,243,224);fill-rule:nonzero;"/>
    <path id="path5680" d="M113.09,54.07C112.09,55.64 112.66,57.12 113.47,57.88C114.28,58.64 116.42,58.93 117.38,57.21C118.33,55.5 117.48,54.02 116.57,53.5C115.66,52.98 113.89,52.82 113.09,54.07Z" style="fill:rgb(255,243,224);fill-rule:nonzero;"/>
</svg>

<?xml version="1.0" encoding="utf-8"?>
<!-- Generator: Adobe Illustrator 25.2.3, SVG Export Plug-In . SVG Version: 6.00 Build 0)  -->
<svg version="1.1" id="Layer_3" xmlns="http://www.w3.org/2000/svg" xmlns:xlink="http://www.w3.org/1999/xlink" x="0px" y="0px"
	 viewBox="0 0 128 128" style="enable-background:new 0 0 128 128;" xml:space="preserve">
<path style="fill:#AD5834;" d="M44.84,33.44l-27.41,5.8l4.37,39.23l5.54,30.28c0,0,4.51,4.92,10.39,4.78s8.34-3.69,8.34-3.69
	s8.75,4.76,21.6,4.37c16.33-0.49,23.55-6.2,23.55-6.2s4.75,2.26,9.36,1.74c7.06-0.81,10.55-6.32,11.21-11.04
	c0.69-4.89-0.39-7.16-0.39-7.16s8.89-10.01,11.76-25.18s-1.23-29.25-3.42-32.12s-14.21,34.17-14.21,34.17l-10.79,4.75l-3.02,3.86
	L74.68,92.28l-8.59-0.43c-2.32-0.27-12.09-1.97-19.33-7.98s-18.18-14.9-19.14-27.88C26.25,37.38,44.84,33.44,44.84,33.44z"/>
<path style="fill:#AD5834;" d="M74.09,30.98c0,0,27.06-1.91,27.2-1.37c0.14,0.55,0.45,14.49,0.45,14.49s-6.44-8.92-16.52-3.29
	c-5.9,3.29-6.21,11.48-6.21,11.48s3.14,3.28,3.42,7.38s-1.5,8.06-1.5,8.06l6.97,5.74L73.5,91.25c0,0-2.88-3.58-3.97-5.08
	c-1.09-1.5-2.25-3.21-2.25-3.21l-8.36,9.39c0,0-15.58-4.1-15.03-6.15c0.55-2.05,25.83-28.29,25.56-31.03
	C69.17,52.44,74.36,30.71,74.09,30.98z"/>
<path style="fill:#E17F16;" d="M59.64,104.42c0,0,6.45,1.85,14.19,0.56s12.34-4.6,12.34-4.6s-11.53-10.08-11.61-9.76
	c-0.08,0.32-2.75,1.15-4.61,1.23c-1.85,0.08-4.43-0.1-4.43-0.1s-2.37,3.3-3.71,6.45C61.16,99.74,59.64,104.42,59.64,104.42z"/>
<path style="fill:#E17F16;" d="M65.77,26.03c-1.08-0.96-14.22-15.18-37.65-7.65C4.39,26.01-3.32,59.5,11.03,81.25
	c8.16,12.37,13.27,15.18,13.27,15.18l11.71-16.02c0,0-16.73-12.31-12.67-28.92c4.63-18.92,23.19-12.43,26.89-8.61
	c3.71,3.82,2.51,2.99,2.51,2.99L65.77,26.03z"/>
<path style="fill:#FFB502;" d="M61.17,28.04c-0.44-0.73-9.19,4.77-11.28,14.77c-2.21,10.57,0.8,16.41,1.96,18.74
	c1.16,2.32,2.91,3.85,2.91,3.85l3.49-7.04c0,0-0.67-8.24,0.71-16.44C60.33,33.71,61.61,28.77,61.17,28.04z"/>
<path style="fill:#FFB502;" d="M76.71,57.61c0,0-2.4-5.94-9.65-5.83c-5.78,0.09-12.56,8.42-23.82,19.68
	c-8.47,8.47-16.18,15.28-19.12,20.72c-4.51,8.37,1.72,14.89,1.72,14.89L55.8,67.84L76.71,57.61z"/>
<path style="fill:#FFB502;" d="M72.79,82.77l-2.97,3.83c0,0,6.24,8.27,10.32,12.43c4.56,4.66,8.53,8.93,13.98,9.96
	c3.93,0.74,7.65-1.37,7.65-1.37s-4.07-4.11-9.17-8.57C84.05,91.56,72.79,82.77,72.79,82.77z"/>
<path style="fill:#E47D17;" d="M84.42,70.64c0,0-4.08,3.31-7.38,6.96c-3.3,3.66-5.34,6.57-5.34,6.57s11.65,13.36,19.39,18.24
	s10.68,5.21,10.68,5.21s5.74-2.77,5.81-8.86s-4.3-13.55-9.89-17.85C92.09,76.6,84.42,70.64,84.42,70.64z"/>
<path style="fill:#E07F14;" d="M94.66,73.24c0,0,3.65,1.56,6.72,4.01c3.08,2.44,7.08,6.91,7.08,6.91s9.29-9.84,12.69-25.56
	c2.54-11.76,2.37-23.06-6.18-32.56c-9.45-10.51-20.28-12.31-32.17-10.83S62.02,23.52,56.8,35.38c-5.41,12.31,0.87,21.98,0.87,21.98
	s5.83-4.24,8.91-4.86c3.88-0.78,6.49,0.98,6.49,0.98s0.81-7.41,4.75-12.24c2.91-3.56,8.37-6.18,14.66-4.44
	c14.83,4.1,9.23,21.94,7.43,26.5C98,68.12,94.66,73.24,94.66,73.24z"/>
<path style="fill:#E47D17;" d="M42.64,107.95c-3,3.52-9.65,5.43-15.13,0.87c-6.45-5.37-0.35-14.54,5.9-21.41
	c6.52-7.16,22.17-23.25,26.58-26.8c4.76-3.83,10.02-7.5,13.65-6.19c3.62,1.31,4.97,6.71,3.76,11.58c-0.95,3.8-5.6,8.27-9.39,11.94
	c-1.51,1.46-6.14,5.88-10.78,11.41C50.92,96.86,46.06,103.93,42.64,107.95z"/>
<path style="fill:#FFFFFF;" d="M93.74,90.43c-0.57,0.67,1.29,4.87,2.25,4.78s3.39-3.06,3.25-4.16
	C99.12,90.15,94.31,89.76,93.74,90.43z"/>
<path style="fill:#FDFFFF;" d="M65.09,63.6c-0.32,0.65,1.76,5.86,2.52,5.81s4-5.29,3.81-5.95C71.23,62.79,65.47,62.84,65.09,63.6z"
	/>
<path style="fill:#FDFFFF;" d="M53.47,79.22c-0.96-0.79-3.04-1.06-4.14,0.62c-1,1.52-0.71,3.1,0.71,4.1c0.92,0.64,3,0.71,3.86-0.71
	C54.65,81.96,54.85,80.36,53.47,79.22z"/>
<path style="fill:#FDFFFF;" d="M27.46,75.96c-0.86-0.73-2.73-0.97-3.72,0.57c-0.9,1.4-0.64,2.84,0.64,3.76
	c0.83,0.59,2.69,0.66,3.46-0.66C28.52,78.48,28.7,77.01,27.46,75.96z"/>
<path style="fill:#FDFFFF;" d="M17.13,61.78c0.85-0.74,1.34-2.69-0.03-3.9c-1.25-1.1-2.68-0.93-3.78,0.2
	c-0.71,0.73-1.02,2.89,0.16,3.84C14.51,62.78,15.9,62.85,17.13,61.78z"/>
<path style="fill:#FDFFFF;" d="M10.81,73.33c-0.19,0.89,3.37,4.34,4,4.24c0.62-0.1,2.19-6.33,1.67-6.62
	C15.95,70.67,10.95,72.67,10.81,73.33z"/>
<path style="fill:#FDFFFF;" d="M21.44,31.47c-0.67-0.09-3.48,4.75-3.11,5.33c0.37,0.59,4.99,0.57,5.36,0.01
	C24.07,36.25,22.36,31.59,21.44,31.47z"/>
<path style="fill:#FDFFFF;" d="M24.95,23.24c-0.26,1.01,4.28,4.52,4.84,4.44c0.78-0.1,3.3-5,2.79-6.1
	C32.28,20.95,25.15,22.49,24.95,23.24z"/>
<path style="fill:#FDFFFF;" d="M43.48,26.65c0.1,1.77,1.29,2.46,2.54,2.42c1.25-0.04,2.5-1.05,2.38-2.78
	c-0.12-1.73-1.69-2.22-2.7-2.14C44.69,24.24,43.4,25.2,43.48,26.65z"/>
<path style="fill:#FDFFFF;" d="M63.64,43.46c0,0.78,3.52,4.5,4.76,4.12c0.84-0.25,1.14-6.27,0.24-6.68
	C67.73,40.49,63.64,42.72,63.64,43.46z"/>
<path style="fill:#FDFFFF;" d="M68.82,27.38c-0.12,0.65,2.92,4.3,3.79,4.06c0.87-0.24,1.89-5.49,1.7-5.88
	C74,24.93,69,26.43,68.82,27.38z"/>
<path style="fill:#FDFFFF;" d="M93.81,29.82c0.66-0.69-0.64-5.29-1.54-5.33c-0.9-0.04-4.16,3.8-3.33,4.77S93,30.66,93.81,29.82z"/>
<path style="fill:#FDFFFF;" d="M106.49,40.15c0.43,1.18,4.96,1.69,5.82,1.03c0.86-0.67-1.52-5.14-2.43-5.33
	C108.97,35.65,106.11,39.1,106.49,40.15z"/>
<path style="fill:#FDFFFF;" d="M101.26,23.63c-0.54,1.31-0.18,2.67,1.24,3.38c1.43,0.71,2.77-0.12,3.24-1.1
	c0.67-1.38,0.05-3-1.1-3.52C103.37,21.81,101.83,22.25,101.26,23.63z"/>
<path style="fill:#FDFFFF;" d="M104.9,61.17c-0.4,1.09,1.19,3.52,2.14,3.48s2.81-4.38,2.24-5.1
	C108.71,58.84,105.24,60.26,104.9,61.17z"/>
<path style="fill:#FDFFFF;" d="M113.09,54.07c-1,1.57-0.43,3.05,0.38,3.81c0.81,0.76,2.95,1.05,3.91-0.67
	c0.95-1.71,0.1-3.19-0.81-3.71C115.66,52.98,113.89,52.82,113.09,54.07z"/>
</svg>
